X:1
T:Recorder Duet, Telemann
T:TWV 40:107 IV. Presto
T:G. Ph. Telemann (1681-1767)
T:1728 in getreue Music-Meister 
T:Public Domain
T:Public Domain
T:Public Domain
C:G. Ph. Telemann
Z:Public Domain
%%score 1 2
L:1/8
Q:1/2=80
M:2/2
K:Bb
V:1 treble nm="Baroque Flute, uno" snm="Bq. Fl."
V:2 treble nm="Baroque Flute, dos" snm="Bq. Fl."
V:1
"^Presto" f4 b4 | Ta4 z2 g2 | f2 d2 (e3 f) | Td4 c4 | B2 d2 c2 e2 | d3 e/f/ c2 F2 | B2 d2 c2 e2 | %7
w: creator:~ *|||||||
 d4 c4 | B2 c2 d2 B2 | f2 F2 f2 e2 | d2 B2 c2 A2 | B2 F2 A2 F2 | e2 dc d4 | g2 B2 f2 B2 | %14
w: |||||||
 e2 dc d4 | g2 B2 f2 B2 | e4 e4 | e6 dc | d2 B2 F2 f2 | B2 fe d2 c2 | BABc BdcB | AFGA BcBA | %22
w: ||||||||
 Bede Adcd | Gg^fg dgfg | cABc ddcd | BcBA BAGA | =BcBA BGAB | c=Bcd =ecde | f2 c2 A2 c2 | f6 g=e | %30
w: ||||||||
 f2 c2 A2 c2 | f6 g2 | a2 b2 c'4 | g2 a2 b4 | a2 b2 c'2 b2 | a4 g4 | c'4 f4 | b6 g2 | a3 b g4 | %39
w: |||||||||
 f2 FG AFGA | B2 c2 d2 B2 | f2 F2 f2 e2 | d2 B2 c2 A2 | B2 F2 A2 F2 | z4 A3 B/c/ | B4 A4 | %46
w: |||||||
 z4 A3 B/c/ | B2 F2 A2 F2 | f4 b4 | a4 z2 g2 | f2 d2 e3 f | d4 c4 | g2 B2 f2 B2 | e2 dc d4 | %54
w: ||||||||
 g2 B2 f2 B2 | e2 dc d4 | c2 e2 g2 B2 | A2 c2 F2 A2 | B2 d2 c2 a2 | b2 BA B2 c2 | dfef dfed | %61
w: |||||||
 egfg egfe | dfef dfed | egfg egfg | _accc accc | dfef dfef | gBBB gBBB | cede cede | fddd fddd | %69
w: ||||||||
 =Bcde fg _a2 | z2 gf e2 d2 | cdef gefg | c4 z4 | gf e2 z4 | ed c2 z4 | gf e2 ed c2 | cB A2 AG F2 | %77
w: ||||||||
 cB A2 ed c2 | dcde dfed | cBAG F4 |] %80
w: |||
V:2
 B2 c2 d2 B2 | f2 F2 f2 e2 | d2 B2 c2 A2 | B2 F2 A2 F2 | z4 (A3 B/c/) | B4 A4 | z4 (A3 B/c/) | %7
 B2 F2 A2 F2 | f4 b4 | Ta4 z2 g2 | f2 d2 (e3 f) | d4 c4 | g2 B2 f2 B2 | e2 dc d4 | g2 B2 f2 B2 | %15
 e2 dc d4 | c2 e2 g2 B2 | A2 c2 F2 A2 | B2 d2 c2 a2 | b4 z4 | d4 =e4 | f4 z2 d2 | g4 a4 | %23
 b4 z2 a2 | a4 g2 ^f2 | g4 a2 b>a | g6 f2 | =e3 d c2 B2 | AcBc fcBc | AcBc FcBc | AcBc fcBc | %31
 AcBc FcBc | fcgc acac | ecfc gcgc | fcgc acgc | fcfc =ecec | AABc ddcd | GGAB ccd=e | %38
 f=efd B2 c2 | F4 z4 | f4 b4 | a4 z2 g2 | f2 d2 e3 f | d4 c4 | B2 d2 c2 e2 | d3 e/f/ c2 F2 | %46
 B2 d2 c2 e2 | d4 c4 | B2 c2 d2 B2 | f2 F2 f2 e2 | d2 B2 c2 A2 | B2 F2 A2 F2 | e2 dc d4 | %53
 g2 B2 f2 B2 | e2 dc d4 | g2 B2 f2 B2 | e4 e4 | e6 dc | d2 B2 F2 f2 | B4 z4 | =Bdcd BdcB | %61
 cede cedc | =Bdcd BdcB | cede cede | f_aaa faaa | Bdcd Bdcd | eggg eggg | AcBc AcBc | dfff dfff | %69
 GA=Bc de f2 | z2 ed c2 =B2 | c4 z4 | cdef gefg | c4 gf e2 | z4 ed c2 | z4 gf e2 | ed c2 cB A2 | %77
 AG F2 cB A2 | BABc BdcB | ABcB AFGA |] %80

